img/benefit-icons/img2.svg

<svg width="35" height="35" viewBox="0 0 35 35" fill="none" xmlns="http://www.w3.org/2000/svg">
<path d="M30.8467 26.1556C30.4868 23.995 28.9719 22.2221 26.8933 21.5293L22.2794 19.9913V19.3054H21.2068V20.3114L20.4062 23.5134L18.2403 20.9142H16.6653L14.4993 23.5134L13.6992 20.3114V19.3054H12.6267V19.9913L8.01271 21.5293C5.93471 22.2221 4.41977 23.995 4.05941 26.1556L2.87695 33.2481H17.453H32.0291L30.8467 26.1556ZM7.8513 32.1756H4.1436L4.31574 31.1406L7.90975 31.59L7.8513 32.1756ZM14.8431 32.1756H8.92918L9.40645 27.4029L8.33929 27.2962L8.01647 30.5229L4.49217 30.0821L5.11691 26.332C5.41185 24.5645 6.65115 23.1139 8.35163 22.5471L12.7827 21.0697L13.9711 25.8226L15.1804 24.3714L15.8201 25.3313L14.8431 32.1756ZM18.9798 32.1756H17.453H15.9263L16.9404 25.0772L15.8968 23.5118L17.1677 21.9867H17.7378L19.0087 23.5118L17.9652 25.0772L18.9798 32.1756ZM26.5668 27.2957L25.4996 27.4024L25.9769 32.1751H20.063L19.0854 25.3308L19.7252 24.3709L20.935 25.8226L22.1233 21.0697L26.5544 22.5471C28.2549 23.1139 29.4942 24.5645 29.7891 26.3325L30.4139 30.0826L26.8896 30.5234L26.5668 27.2957ZM27.0548 32.1756L26.9963 31.59L30.5903 31.1406L30.7625 32.1756H27.0548Z" fill="#0383FD"/>
<path d="M8.94836 10.1139C8.57191 10.5756 8.33649 11.1569 8.33649 11.7977C8.33649 13.1738 9.3822 14.2978 10.7186 14.449C10.992 15.3901 11.4972 16.253 12.2094 16.9651L14.3008 19.0565C14.807 19.5628 15.48 19.8416 16.1965 19.8416H18.7099C19.4258 19.8416 20.0993 19.5628 20.6056 19.0565L22.697 16.9651C23.4091 16.253 23.9143 15.3896 24.1878 14.449C25.5236 14.2978 26.5693 13.1738 26.5693 11.7977C26.5693 11.1569 26.3339 10.5756 25.9575 10.1139C26.6192 9.91437 27.1056 9.30625 27.1056 8.58016C27.1056 7.69318 26.3838 6.97138 25.4968 6.97138H25.4207C24.9933 3.80584 22.683 1.15725 19.5979 0.301914V0H15.3079V0.301914C12.2228 1.15725 9.91202 3.80637 9.48516 6.97138H9.40901C8.52204 6.97138 7.80023 7.69318 7.80023 8.58016C7.80023 9.30625 8.28662 9.91437 8.94836 10.1139ZM9.40901 11.7977C9.40901 11.0995 9.85893 10.5096 10.4815 10.2876V12.7941C10.4815 12.9694 10.4917 13.1432 10.5067 13.3159C9.87127 13.1008 9.40901 12.505 9.40901 11.7977ZM23.3512 12.7941C23.3518 14.0833 22.8498 15.2952 21.9382 16.2068L19.8468 18.2983C19.5475 18.5975 19.133 18.7691 18.7094 18.7691H16.1959C15.7723 18.7691 15.3583 18.5975 15.0585 18.2983L12.9671 16.2068C12.0555 15.2952 11.5535 14.0833 11.5535 12.7941V10.1889H23.3512V12.7941ZM24.3991 13.3153C24.4141 13.1432 24.4243 12.9694 24.4243 12.7941V10.2876C25.0469 10.5096 25.4968 11.0995 25.4968 11.7977C25.4968 12.505 25.0345 13.1008 24.3991 13.3153ZM15.3079 1.41894V5.89886H16.3804V1.07252H18.5254V5.89886H19.5979V1.41894C22.0835 2.22494 23.9384 4.38929 24.3417 6.97138H10.5641C10.9674 4.38929 12.8223 2.22494 15.3079 1.41894ZM9.40901 8.0439H25.4968C25.7923 8.0439 26.0331 8.28468 26.0331 8.58016C26.0331 8.87563 25.7923 9.11642 25.4968 9.11642H9.40901C9.11353 9.11642 8.87275 8.87563 8.87275 8.58016C8.87275 8.28468 9.11353 8.0439 9.40901 8.0439Z" fill="#0383FD"/>
<path d="M21.7431 4.82639H20.6706V5.8989H21.7431V4.82639Z" fill="#0383FD"/>
<path d="M14.2355 4.82639H13.163V5.8989H14.2355V4.82639Z" fill="#0383FD"/>
</svg>

<svg width="35" height="35" fill="none" xmlns="http://www.w3.org/2000/svg"><path d="M30.847 26.156a5.885 5.885 0 00-3.954-4.627l-4.614-1.538v-.686h-1.072v1.006l-.8 3.202-2.167-2.599h-1.575l-2.166 2.6-.8-3.203v-1.006h-1.072v.686L8.013 21.53a5.887 5.887 0 00-3.954 4.627l-1.182 7.092h29.152l-1.182-7.092zM7.85 32.176H4.144l.172-1.035 3.594.449-.059.586zm6.992 0H8.93l.477-4.773-1.067-.107-.323 3.227-3.524-.44.625-3.751a4.817 4.817 0 013.235-3.785l4.43-1.477 1.19 4.753 1.208-1.452.64.96-.977 6.845zm4.137 0h-3.054l1.014-7.099-1.043-1.565 1.27-1.525h.57l1.272 1.525-1.044 1.565 1.015 7.099zm7.587-4.88l-1.067.106.477 4.773h-5.914l-.978-6.844.64-.96 1.21 1.452 1.188-4.753 4.431 1.477a4.816 4.816 0 013.235 3.785l.625 3.75-3.524.441-.323-3.227zm.488 4.88l-.059-.586 3.594-.45.172 1.036h-3.707z" fill="#0383FD"/><path d="M8.948 10.114a2.655 2.655 0 00-.612 1.684c0 1.376 1.046 2.5 2.383 2.651a5.861 5.861 0 001.49 2.516l2.092 2.091a2.66 2.66 0 001.896.786h2.513c.716 0 1.39-.28 1.896-.785l2.091-2.092a5.866 5.866 0 001.49-2.516 2.676 2.676 0 002.382-2.651c0-.641-.235-1.222-.611-1.684a1.606 1.606 0 001.148-1.534 1.61 1.61 0 00-1.61-1.609h-.075a8.08 8.08 0 00-5.823-6.67V0h-4.29v.302a8.08 8.08 0 00-5.823 6.67H9.41A1.61 1.61 0 007.8 8.58c0 .726.487 1.334 1.148 1.534zm.461 1.684c0-.698.45-1.288 1.072-1.51v2.506c0 .175.01.35.026.522a1.607 1.607 0 01-1.098-1.518zm13.942.996c0 1.29-.501 2.501-1.413 3.413l-2.091 2.091c-.3.3-.714.471-1.138.471h-2.513a1.62 1.62 0 01-1.138-.47l-2.09-2.092a4.795 4.795 0 01-1.415-3.413V10.19h11.798v2.605zm1.048.521c.015-.172.025-.346.025-.52v-2.507a1.607 1.607 0 011.073 1.51c0 .707-.462 1.303-1.098 1.517zM15.308 1.42V5.9h1.072V1.073h2.145v4.826h1.073v-4.48a7.009 7.009 0 014.744 5.552H10.564a7.009 7.009 0 014.744-5.552zM9.409 8.044h16.088a.537.537 0 010 1.072H9.409a.537.537 0 010-1.072z" fill="#0383FD"/><path d="M21.743 4.826h-1.072V5.9h1.072V4.826zm-7.507 0h-1.073V5.9h1.072V4.826z" fill="#0383FD"/></svg>
